Simply-Blue-Circles/symbolic/places/folder-remote-symbolic.svg

<svg xmlns="http://www.w3.org/2000/svg" width="24" height="24" version="1"><path d="M4.06 2.12A2.48 2.48 0 0 0 1.57 4.6V19.4a2.48 2.48 0 0 0 2.49 2.48h15.89a2.48 2.48 0 0 0 2.48-2.48V4.6c0-1.37-1.1-2.48-2.48-2.48H4.05zm6.87 4h2.17c.67 0 1.22.53 1.22 1.21v.3a.57.57 0 0 0 .58.58h1.65c.68 0 1.23.75 1.23 1.42v6.84c0 .67-.55 1.22-1.23 1.22H7.48c-.68 0-1.23-.55-1.23-1.22V9.63c0-.67.55-1.41 1.23-1.41h1.65c.28.02.58-.2.58-.57v-.32c0-.67.55-1.22 1.22-1.22zM8.5 12.7v2.18h7V12.7h-7z" fill="gray"/></svg>

<?xml version="1.0" encoding="UTF-8" standalone="no"?>
<svg
   xmlns:dc="http://purl.org/dc/elements/1.1/"
   xmlns:cc="http://creativecommons.org/ns#"
   xmlns:rdf="http://www.w3.org/1999/02/22-rdf-syntax-ns#"
   xmlns:svg="http://www.w3.org/2000/svg"
   xmlns="http://www.w3.org/2000/svg"
   xmlns:sodipodi="http://sodipodi.sourceforge.net/DTD/sodipodi-0.dtd"
   xmlns:inkscape="http://www.inkscape.org/namespaces/inkscape"
   width="24"
   height="24"
   version="1"
   id="svg4"
   sodipodi:docname="folder-remote-symbolic.svg"
   inkscape:version="0.92.4 (5da689c313, 2019-01-14)">
  <metadata
     id="metadata10">
    <rdf:RDF>
      <cc:Work
         rdf:about="">
        <dc:format>image/svg+xml</dc:format>
        <dc:type
           rdf:resource="http://purl.org/dc/dcmitype/StillImage" />
        <dc:title></dc:title>
      </cc:Work>
    </rdf:RDF>
  </metadata>
  <defs
     id="defs8" />
  <sodipodi:namedview
     pagecolor="#ffffff"
     bordercolor="#666666"
     borderopacity="1"
     objecttolerance="10"
     gridtolerance="10"
     guidetolerance="10"
     inkscape:pageopacity="0"
     inkscape:pageshadow="2"
     inkscape:window-width="1085"
     inkscape:window-height="480"
     id="namedview6"
     showgrid="false"
     inkscape:zoom="9.8333333"
     inkscape:cx="1.0677966"
     inkscape:cy="12"
     inkscape:window-x="0"
     inkscape:window-y="25"
     inkscape:window-maximized="0"
     inkscape:current-layer="svg4" />
  <path
     d="M 4.06,2.12 A 2.48,2.48 0 0 0 1.57,4.6 v 14.8 a 2.48,2.48 0 0 0 2.49,2.48 H 19.95 A 2.48,2.48 0 0 0 22.43,19.4 V 4.6 c 0,-1.37 -1.1,-2.48 -2.48,-2.48 H 4.05 Z m 6.87,4 h 2.17 c 0.67,0 1.22,0.53 1.22,1.21 v 0.3 a 0.57,0.57 0 0 0 0.58,0.58 h 1.65 c 0.68,0 1.23,0.75 1.23,1.42 v 6.84 c 0,0.67 -0.55,1.22 -1.23,1.22 H 7.48 C 6.8,17.69 6.25,17.14 6.25,16.47 V 9.63 C 6.25,8.96 6.8,8.22 7.48,8.22 H 9.13 C 9.41,8.24 9.71,8.02 9.71,7.65 V 7.33 c 0,-0.67 0.55,-1.22 1.22,-1.22 z M 8.5,12.7 v 2.18 h 7 V 12.7 Z"
     id="path2"
     inkscape:connector-curvature="0"
     style="fill:#808080" />
</svg>
